static/img/kroki/8e068e470fcd5ad6a881b268087f2211.svg

<?xml version="1.0" encoding="us-ascii" standalone="no"?><svg xmlns="http://www.w3.org/2000/svg" xmlns:xlink="http://www.w3.org/1999/xlink" contentStyleType="text/css" height="152px" preserveAspectRatio="none" style="width:505px;height:152px;" version="1.1" viewBox="0 0 505 152" width="505px" zoomAndPan="magnify"><defs/><g><!--class azure_network_local_network_gateway--><g id="elem_azure_network_local_network_gateway"><rect codeLine="23" fill="#3D176E" height="39.7891" id="azure_network_local_network_gateway" rx="2.5" ry="2.5" style="stroke:#000D19;stroke-width:0.5;" width="374" x="65.5" y="7"/><ellipse cx="80.5" cy="26.8945" fill="#ADD1B2" rx="11" ry="11" style="stroke:#181818;stroke-width:1.0;"/><path d="M83.4688,32.5352 Q82.8906,32.832 82.25,32.9727 Q81.6094,33.1289 80.9063,33.1289 Q78.4063,33.1289 77.0781,31.4883 Q75.7656,29.832 75.7656,26.707 Q75.7656,23.582 77.0781,21.9258 Q78.4063,20.2695 80.9063,20.2695 Q81.6094,20.2695 82.25,20.4258 Q82.9063,20.582 83.4688,20.8789 L83.4688,23.5977 Q82.8438,23.0195 82.25,22.7539 Q81.6563,22.4727 81.0313,22.4727 Q79.6875,22.4727 79,23.5508 Q78.3125,24.6133 78.3125,26.707 Q78.3125,28.8008 79,29.8789 Q79.6875,30.9414 81.0313,30.9414 Q81.6563,30.9414 82.25,30.6758 Q82.8438,30.3945 83.4688,29.8164 L83.4688,32.5352 Z " fill="#000000"/><text fill="#D9B8FF" font-family="Helvetica" font-size="17" lengthAdjust="spacing" textLength="332" x="99.5" y="32.7798">azure_network_local_network_gateway</text></g><!--class azure_network_virtual_network_gateway_connection--><g id="elem_azure_network_virtual_network_gateway_connection"><rect codeLine="26" fill="#3D176E" height="39.7891" id="azure_network_virtual_network_gateway_connection" rx="2.5" ry="2.5" style="stroke:#000D19;stroke-width:0.5;" width="491" x="7" y="106.79"/><ellipse cx="22" cy="126.6845" fill="#ADD1B2" rx="11" ry="11" style="stroke:#181818;stroke-width:1.0;"/><path d="M24.9688,132.3252 Q24.3906,132.622 23.75,132.7627 Q23.1094,132.9189 22.4063,132.9189 Q19.9063,132.9189 18.5781,131.2783 Q17.2656,129.622 17.2656,126.497 Q17.2656,123.372 18.5781,121.7158 Q19.9063,120.0595 22.4063,120.0595 Q23.1094,120.0595 23.75,120.2158 Q24.4063,120.372 24.9688,120.6689 L24.9688,123.3877 Q24.3438,122.8095 23.75,122.5439 Q23.1563,122.2627 22.5313,122.2627 Q21.1875,122.2627 20.5,123.3408 Q19.8125,124.4033 19.8125,126.497 Q19.8125,128.5908 20.5,129.6689 Q21.1875,130.7314 22.5313,130.7314 Q23.1563,130.7314 23.75,130.4658 Q24.3438,130.1845 24.9688,129.6064 L24.9688,132.3252 Z " fill="#000000"/><text fill="#D9B8FF" font-family="Helvetica" font-size="17" lengthAdjust="spacing" textLength="449" x="41" y="132.5698">azure_network_virtual_network_gateway_connection</text></g><!--link azure_network_local_network_gateway to azure_network_virtual_network_gateway_connection--><g id="link_azure_network_local_network_gateway_azure_network_virtual_network_gateway_connection"><path codeLine="29" d="M252.5,47.22 C252.5,64.36 252.5,83.27 252.5,100.41 " fill="none" id="azure_network_local_network_gateway-to-azure_network_virtual_network_gateway_connection" style="stroke:#1A83AF;stroke-width:2.0;"/><polygon fill="#1A83AF" points="252.5,106.41,256.5,97.41,252.5,101.41,248.5,97.41,252.5,106.41" style="stroke:#1A83AF;stroke-width:2.0;"/></g><!--SRC=[bP1FJy904CNl_HIRS2QX4WKk9fM4w8KOyMPCC-pEmgRjRZCxfG7ZTzUAahNbZnvdtc_clPcrKIYmA7ah2YoMI3xocR4b41GY8NBrrEMEH4zhqCDHMvmvonU1EHGexZ7V81i9RU9vRMHcqNjn5KXt8BCLkSgg_NeciFvJGii1DSt1-uIPpB9Y3CAeoNAiTPjiB-qDLJowmGxcI25z8uF1GCMJDdBHwkpT1s9XTYZYy6bpnzY9sR7ueiwcR8WWPEVG7_ranaTGojYLk0vwJ_jCP95-zHThKAvkQ0sv3sqy8w7ZROdJpbKu6IizEWe_d88ZsRnEmAuYJ2roxIXBSoSXFrGhOAnXAzwYwFqelZ74LNSWbSvQb6oStS_-nQJ_qekJyJ2PlVPl_sqJVG00]--></g></svg>

<svg xmlns="http://www.w3.org/2000/svg" width="505" height="152" viewBox="0 0 505 152"><rect width="374" height="39.789" x="65.5" y="7" fill="#3D176E" rx="2.5" ry="2.5" style="stroke:#000d19;stroke-width:.5"/><circle cx="80.5" cy="26.895" r="11" fill="#ADD1B2" style="stroke:#181818;stroke-width:1"/><path d="M83.469 32.535q-.578.297-1.219.438-.64.156-1.344.156-2.5 0-3.828-1.64-1.312-1.657-1.312-4.782t1.312-4.781q1.328-1.656 3.828-1.656.703 0 1.344.156.656.156 1.219.453v2.719q-.625-.578-1.219-.844-.594-.281-1.219-.281-1.344 0-2.031 1.078-.687 1.062-.687 3.156T79 29.879q.688 1.062 2.031 1.062.625 0 1.219-.265.594-.281 1.219-.86z"/><text x="99.5" y="32.78" fill="#D9B8FF" font-family="Helvetica" font-size="17" textLength="332">azure_network_local_network_gateway</text><rect width="491" height="39.789" x="7" y="106.79" fill="#3D176E" rx="2.5" ry="2.5" style="stroke:#000d19;stroke-width:.5"/><circle cx="22" cy="126.684" r="11" fill="#ADD1B2" style="stroke:#181818;stroke-width:1"/><path d="M24.969 132.325q-.578.297-1.219.438-.64.156-1.344.156-2.5 0-3.828-1.64-1.312-1.657-1.312-4.782t1.312-4.781q1.328-1.656 3.828-1.656.703 0 1.344.156.656.156 1.219.453v2.719q-.625-.579-1.219-.844-.594-.281-1.219-.281-1.343 0-2.031 1.078-.687 1.062-.687 3.156t.687 3.172q.688 1.062 2.031 1.062.625 0 1.219-.265.594-.281 1.219-.86z"/><text x="41" y="132.57" fill="#D9B8FF" font-family="Helvetica" font-size="17" textLength="449">azure_network_virtual_network_gateway_connection</text><path fill="none" d="M252.5 47.22v53.19" style="stroke:#1a83af;stroke-width:2"/><path fill="#1A83AF" d="m252.5 106.41 4-9-4 4-4-4z" style="stroke:#1a83af;stroke-width:2"/></svg>
